X:1
T:[ID 2-3a]
T:[ID 2-3a]
T:Bezeichnung standardisiert: Menuett Menuet
T:Urheber unbekannt Datum in der hier transkribierten schriftlichen Quelle: 1767
C:Urheber unbekannt
C:Datum in der hier transkribierten schriftlichen Quelle: 1767
%%score ( 1 2 )
L:1/8
M:3/4
K:G
V:1 treble 
V:2 treble 
V:1
 GGBBdd | g2 d2 d2 | (ee)(dd)(cc) | BBAA G2 | d2 B2 B2 | c2 A4 | (Gd)(dc)(cB) | B2 A4 :: A2 AAAA | %9
 A3 B c2 | B2 BBBB | B3 c d2 | d3 c B2 | d3 c B2 | (3edc B2 A2 | A4 G2 :| %16
V:2
 x6 | x6 | x6 | x6 | x6 | x6 | x6 | x6 :: A2 AAAA | x6 | x6 | x6 | x6 | x6 | x6 | x6 :| %16

